X: 22104
T: Kobo Daishi Henji Kongo
R: polka
M: 2/4
K: Eminor
cd|ed cB|cd dc/d/|ed cB|cA Ac/d/|
ed cB|cd dc/d/|B2 B2|1 B2 Bc/d/:|2 B2 BE/^G/||
AB (3A/B/A/^G|E2 ED/E/|=FG (3=F/G/=F/E|E2 E2|
DE =FG|AG =FG|E2 E2|1 E2 EE/^G/:|2 E2 Ec/d/||

